X: 34
T: The DEVONSHIRE
%R: hornpipe
B: Jean White "100 Popular Hornpipes, Reels, Jigs and Country Dances", Boston 1880 p.15
F: http://www.loc.gov/resource/sm1880.09124.0#seq-1
Z: 2014 John Chambers <jc:trillian.mit.edu>
M: C|
L: 1/8
K: A
% - - - - - - - - - - - - - - - - - - - - - - - - - - - - -
e>c |\
c>Bc>d c>ae>c | B>AB>c B>ed>B |\
c>ea>c' e'>c'b>a | b>ag>f e>dc>B |
c>Bc>d c>ae>c | B>AB>c B>ed>B |\
c>eA>c B>fe>g | a2A2 A2 :|
|: b>a |\
g>ab>c' d'>g T(3gfg | a>bc'>d' e'>c' T(3c'bc' |\
d'>b T(3bab c'>a T(3aga | b2e'2 e'2e>d |
c>Bc>d e>ag>a | f>dB>A G>Be>d |\
c>a T(3aga f>dB>G | A2a2 A2 H:|
% - - - - - - - - - - - - - - - - - - - - - - - - - - - - -

%%sep 1 1 500
%%sep 1 1 500
